X:1
T:Las, ie ne sçay de quel nom
T:Ebran
T:Source : Livre VIII de 25 chansons nouvelles à 4 parties---Paris---N.du Chemin---1550. Editor : André Vierendeels (28/03/18) Notes :Original clefs : G2, C2, C3, F3 Original note values have been halved Editorial accidentals above the staff Dotted brackets indicate black notes
T:Las, ie ne sçay de quel nom
T:©
T:©
T:©
T:©
C:Ebran
Z:©
%%score [ 1 2 3 4 ]
L:1/8
Q:1/4=120
M:3/4
K:F
V:1 treble nm="Soprano" snm="S"
V:2 treble nm="Alto" snm="A"
V:3 treble-8 nm="Tenor" snm="T"
V:4 bass nm="Bass" snm="B"
V:1
 G2 d2 e2 | f4 e2 | d4 c2 |[M:2/2] B2 A4 G2 | A2 A2 A2 G2 | F2 f2 e2 d2 | cBAG A2 B2 | c2 d2 cBAG | %8
w: Las, ie ne|sçay de|quel nom|te nom- *|mer, le nom d'a-|my, le nom d'a-|my _ _ _ _ ne|se- roit ve- * * *|
w: Car ie voy|bien, que|ne veulx|plus ay- *|mer, cel- le qui|tant, cel- le qui|tant _ _ _ _ t'a|es- té a- * * *|
"^#" A2 G4 F2 |[M:2/4] G4 :|[M:2/2] z2 G2 G2 A2 | BABc d2 B2 | BABc dcde | f2 f2 e2 d2- | %14
w: ri- ta- *|ble,|He- las, mon|Dieu, _ _ _ _ fault|il _ _ _ _ _ _ _|que va- ri- a-|
w: gre- a- *|ble.|||||
 d2 c2 d4 | z2 A2 G2 G2 | FEFG A2 A2 | B2 B2 A2 GF |[M:2/4] G2 G2 |[M:3/4] F4 G2 | B2 B4 | %21
w: * * ble,|tu sois nom-|mé _ _ _ _ au|lieu du nom _ _|d'a- my,|ou qu'à|pre- sent|
w: |||||||
[M:2/2] A2 A2 GFGA | B2 B2 cB B2- | B2 A2 B2 d2 | c2 A2 B2 d2 | e2 f2 d3 c | BA d4 c2 | %27
w: ie t'ap- pel- * * *|* l'en- * * *|* ne- my, O|noms fas- cheux, O|noms fas- cheux _|_ _ _ _|
w: ||||||
 d2 B2 B2 A2 | G2 G2 F3 G | A2 B4 A2- |[M:2/4] A2 G2 |[M:3/4] A4 z2 | G2 d2 e2 | f4 e2 | d4 c2 | %35
w: * et plus que|ne puis di- *|||re,|las, ie ne|puis les|nom- mer|
w: ||||||||
[M:2/2] B2 A4 G2 | A2 A2 A2 G2 | F2 f2 e2 d2 | cBAG A2 B2 | c2 d2 cBAG |"^#" A2 G4 F2 | G8 |] %42
w: qu'à de- *|my, le seul pen-|ser, le seul pen-|ser _ _ _ _ me|fe- ra mou- * * *|rir d'i- *|re.|
w: |||||||
V:2
 D2 D2 G2 | F4 G2 | B4 G2 |[M:2/2] F4 D4 | D2 F2 F2 D2 | DEFG A2 A2 | A2 F2 F2 D2 | F2 F2 F4- | %8
w: Las, ie ne|sçay de|quel nom|te nom-|mer, le nom d'a-|my, _ _ _ _ le|nom d'a- my ne|se- roit ve-|
w: Car ie voy|bien, que|ne veulx|plus ay-|mer, cel- le qui|tant, _ _ _ _ cel-|le qui tant t'a|es- té a-|
 F2 D2 D4 |[M:2/4] D4 :|[M:2/2] z2 D2 D2 F2 | FEDC B,G, G2 | F3 G/A/ B2 B2 | c6 A2 | A4 F2 F2 | %15
w: * ri- ta-|ble,|He- las, mon|Dieu, _ _ _ _ _ fault|il _ _ _ que|va- ri-|a- ble, tu|
w: * gre- a-|ble.||||||
 F2 F2 D4 | z2 F2 F2 F2 | D2 E2 F2 F2 |[M:2/4] B,2 C2 |[M:3/4] D4 D2 | G2 F4 | %21
w: sois nom- mé,|sois nom- mé|au lieu du nom|d'a- my,|ou qu'à|pre- sent|
w: ||||||
[M:2/2] F2 F2 D3 E/F/ |"^b" G2 G2 G2 E2 | F4 D2 G2 | G2 F2 G2 B2 | B2 A2 B3 A/G/ | F2 A2 G2 FE | %27
w: ie t'ap- pel- * *|* l'en- ne- *|* my, O|noms fas- cheux, O|noms fas- cheux _ _|_ et plus que _|
w: ||||||
 FEDC B,A, D2- | D2 C2 D2 D2 | E2 F2 F4 |[M:2/4] D4 |[M:3/4] D4 z2 | D2 D2 G2 | F4 G2 | B4 G2 | %35
w: ne _ _ _ puis _ di-|* * r'et plus|que ne puis|di-|re,|las, ie ne|puis les|nom- mer|
w: ||||||||
[M:2/2] F4 D4 | D2 F2 F2 D2 | DEFG A2 A2 | A2 F2 F2 D2 | F2 F2 F4- | F2 D2 D4 | D8 |] %42
w: qu'à de-|my, le seul pen-|ser, _ _ _ _ le|seul pen- ser me|fe- ra mou-|* rir d'i-|re.|
w: |||||||
V:3
 G2 B2 c2 | d4 e2 | f4 e2 |[M:2/2] d2 c2 B4 | A2 d2 c2 B2 | A4 z2 f2 | e2 d2 cB BA/G/ | %7
w: Las, ie ne|sçay de|quel nom|te _ nom-|mer, le nom d'a-|my, le|nom d'a- my _ _ _ _|
w: Car ie voy|bien, que|ne veulx|plus _ ay-|mer, cel- le qui|tant, cel-|le qui tant _ _ _ _|
 A2 B2 c2 d2 | c2 B2 A4 |[M:2/4] G4 :|[M:2/2] z2 G2 B2 c2 | dcde f2 d2 | dcde fefg | a2 a2 g2 f2 | %14
w: _ ne se- roit|ve- ri- ta-|ble,|He- las, mon|Dieu, _ _ _ _ fault|il _ _ _ _ _ _ _|_ que va- ri-|
w: _ t'a es- té|a- gre- a-|ble.|||||
 e4 d2 d2 | c2 c2 BABc | d2 d2 c2 c2 | B2 B2 c2 d2 |[M:2/4] G2 G2 |[M:3/4] A4 B2 | B2 d4 | %21
w: a- ble, tu|sois nom- mé, _ _ _|tu sois nom- mé|au lieu du nom|d'a- my,|ou qu'à|pre- sent|
w: |||||||
[M:2/2] c2 c2 BABc | d2 d2 ed dc/B/ | c2 c2 B2 B2 | c2 d2 G2 g2 | g2 f2 g3 f | d2 f2 e4 | %27
w: ie t'ap- pel- * * *|l'en- ne- my _ _ _ _|_ O noms fas-|cheux, et plus que|ne puis di- *||
w: ||||||
 d4 z2 A2 | B2 G2 A3 B | c2 d4 c2 |[M:2/4] B4 |[M:3/4] A4 z2 | G2 B2 c2 | d4 e2 | f4 e2 | %35
w: re et|plus que ne _|_ puis di-||re,|las, ie ne|puis les|nom- mer|
w: ||||||||
[M:2/2] d2 c2 B4 | A2 d2 c2 B2 | A4 z2 f2 | e2 d2 cBAG | A2 B2 c2 d2 | c2 B2 A4 | G8 |] %42
w: qu'à de- *|my, le seul pen-|ser, le|seul pen- ser _ _ _|_ me fe- ra|mou- rir d'i-|re.|
w: |||||||
V:4
 G,2 G,2 E,2 | D,4 C,2 | B,,4 C,2 |[M:2/2] D,2 F,2 G,4 | D,2 D,2 F,2 G,2 | D,4 z2 D,2 | %6
w: Las, ie ne|sçay de|quel nom|te _ nom-|mer, le nom d'a-|my, le|
w: Car ie voy|bien, que|ne veulx|plus _ ay-|mer, cel- le qui|tant, cel-|
 A,2 B,2 F,2 G,2 | F,2 B,,2 F,4- | F,2 G,2 D,4 |[M:2/4] G,4 :|[M:2/2] z2 G,2 G,2 F,2 | B,4 z2 G,2 | %12
w: nom d'a- my ne|se- roit ve-|* ri- ta-|ble,|He- las, mon|Dieu, fault|
w: le qui tant t'a|es- té a-|* gre- a-|ble.|||
 B,6 B,2 | F,G,A,B, C2 D2 | A,4 D,2 B,,2 | F,2 F,2 G,F,G,A, | B,2 B,,2 F,2 F,2 | G,2 G,2 F,2 D,2 | %18
w: il que|va- * * * * ri-|a- ble, tu|sois nom- mé, _ _ _|tu sois nom- mé|au lieu du nom|
w: ||||||
[M:2/4]"^b""^b" E,2 E,2 |[M:3/4] D,4 G,2 | G,2 B,4 |[M:2/2] F,2 F,2 G,4- | G,2 G,2 C,2 G,2 | %23
w: d'a- my,|ou qu'à|pre- sent|ie t'ap- pel-|* l'en- * ne-|
w: |||||
 F,4 B,,4 | z4 z2 B,2 | C2 D2 G,4 | z2 F,2 G,2 A,2 | D,2 G,2 G,2 F,2 | G,2 E,2 D,4 | %29
w: * my,|O|noms fas- cheux,|O noms fas-|cheux et plus que|ne puis di-|
w: ||||||
 C,2 B,,C, D,E, F,2 |[M:2/4] G,4 |[M:3/4] D,4 z2 | G,2 G,2 E,2 | D,4 C,2 | B,,4 C,2 | %35
w: ||re,|las, ie ne|puis les|nom- mer|
w: ||||||
[M:2/2] D,2 F,2 G,4 | D,2 D,2 F,2 G,2 | D,4 z2 D,2 | A,2 B,2 F,2 G,2 | F,2 B,,2 F,4- | %40
w: qu'à de- *|my, le seul pen-|ser, le|seul pen- ser me|fe- ra mou-|
w: |||||
 F,2 G,2 D,4 | G,8 |] %42
w: * rir d'i-|re.|
w: ||

